X: 34485
T: Riding On A Load Of Hay
R: polka
M: 2/4
K: Edorian
|:E>F GA|Be ef/e/|dB AG|FD DF|
E>F GA|Be ef/e/|dB AF|E2E2:|
g>e fd|eB Bc|d>B AG|FD Df|
g>e fd|eB BB/c/|d>B AF|E2Ef|
g>e fd|eB Bc|d>B AG|FD DF|
E>F GA|Be ef/e/|dB AF|E2E2||

